images/val-1.svg

<?xml version="1.0" encoding="UTF-8"?>
<svg width="75px" height="73px" viewBox="0 0 75 73" version="1.1" xmlns="http://www.w3.org/2000/svg" xmlns:xlink="http://www.w3.org/1999/xlink">
    <!-- Generator: Sketch 48.2 (47327) - http://www.bohemiancoding.com/sketch -->
    <title>val-1</title>
    <desc>Created with Sketch.</desc>
    <defs>
        <polygon id="path-1" points="0.04393275 0.0795411692 36.3635775 0.0795411692 36.3635775 65.28 0.04393275 65.28"></polygon>
        <polygon id="path-3" points="0 72.32 73.6 72.32 73.6 0 0 0"></polygon>
    </defs>
    <g id="White-Landing--Copy-7" stroke="none" stroke-width="1" fill="none" fill-rule="evenodd" transform="translate(-593.000000, -1180.000000)">
        <g id="Group-31" transform="translate(-88.000000, -410.000000)">
            <g id="Group-24" transform="translate(663.000000, 1587.000000)">
                <g id="Group-23">
                    <g id="val-1" transform="translate(18.000000, 3.000000)">
                        <g id="Page-1" transform="translate(0.680000, 0.400000)">
                            <path d="M29.9726396,14.2449279 C29.1225572,14.6024001 28.3188454,14.9717927 27.4907963,15.275838 C27.0419216,15.440571 26.9946868,15.6812795 27.0944847,16.0944765 C27.3073294,16.9768827 27.452202,17.8759489 27.6762793,18.7551955 C27.7747811,19.1412482 27.7086812,19.3591209 27.3760215,19.5902068 C24.9559578,21.271001 22.7563712,23.1713914 21.2520578,25.7638904 C21.1659407,25.912538 20.8155679,26.002301 20.6097797,25.9721406 C19.6856768,25.8369934 18.7676223,25.6581855 17.8514399,25.4746382 C17.4643449,25.3970829 17.2313391,25.4670263 17.0958271,25.8851064 C16.8749179,26.565869 16.6128224,27.2355728 16.3284055,27.8929252 C16.1756124,28.2460887 16.2247193,28.4488813 16.5605473,28.655408 C17.1722956,29.0316945 17.7267285,29.5073666 18.357774,29.8435829 C19.1352762,30.2579289 19.3668419,30.7172282 19.1469408,31.645593 C18.5349045,34.2294748 18.8111129,36.8304475 19.3605055,39.398531 C19.4742723,39.9297843 19.3700101,40.2254996 18.9054385,40.5058474 C18.1269283,40.9754874 17.38154,41.5020012 16.6417681,42.0318183 C16.50496,42.1297677 16.3459745,42.3997748 16.3909052,42.5153896 C16.7506386,43.440882 17.1570307,44.3484218 17.5468618,45.2561053 C18.678337,45.0158277 19.7134705,44.8151894 20.7376593,44.5695979 C21.1741492,44.4648983 21.4132034,44.5611242 21.6598901,44.9562251 C23.1683796,47.3717833 25.1292,49.3484363 27.5967866,50.7913945 C28.0388928,51.0499119 28.1199696,51.3268128 28.0291002,51.775197 C27.8211519,52.8015112 27.6407092,53.833283 27.4408253,54.9072794 C28.46271,55.2999386 29.4363518,55.6739272 30.4326029,56.0566766 C31.0799214,55.1080612 31.679573,54.1858721 32.3336598,53.3038968 C32.4775244,53.1100087 32.8458982,52.9161206 33.0574468,52.9627974 C35.923505,53.5960215 38.7768904,53.4979285 41.617027,52.8504859 C42.0913912,52.7423394 42.3046678,52.8713109 42.5412739,53.2365386 C43.1252286,54.1376155 43.7447533,55.0158567 44.3759428,55.9413491 C45.2869409,55.5563017 46.1721615,55.2019892 47.0337646,54.7975531 C47.1711488,54.7330673 47.2968683,54.4261497 47.2667705,54.2605549 C47.091368,53.2972902 46.8436733,52.3468078 46.6790716,51.3821068 C46.6426374,51.16883 46.7731092,50.8001554 46.9439033,50.6978974 C49.2378155,49.3263187 51.0357622,47.4410085 52.4578467,45.2273811 C53.0482817,44.3083516 53.6207157,44.0369083 54.6447605,44.3477037 C55.3920209,44.574481 56.3695509,44.9333894 56.9284481,44.6382486 C57.4723684,44.351007 57.6147929,43.3067402 57.9323317,42.5945246 C57.9615655,42.5290336 57.9726541,42.4540635 58.0092323,42.3938864 C58.2144445,42.0578137 58.1155106,41.8485582 57.7863071,41.6401644 C57.0174454,41.1535772 56.2854499,40.6085362 55.5148602,40.1245341 C55.124453,39.8795171 54.9824606,39.6502983 55.0963713,39.1535139 C55.7434018,36.3338068 55.7503142,33.5103655 54.9810205,30.7068875 C54.8751742,30.3212656 54.9658996,30.107127 55.3020156,29.884802 C56.100975,29.3565647 56.875453,28.7898371 57.6394183,28.2117633 C57.7979718,28.0916964 58.003616,27.8040239 57.9568132,27.6800791 C57.6058643,26.7494164 57.1970241,25.8402967 56.8097851,24.9329005 C55.6427398,25.1759069 54.5669959,25.4173335 53.4826115,25.609929 C53.2844558,25.645116 52.9381152,25.5475975 52.849982,25.3992372 C51.3191711,22.8225365 49.1542905,20.8977305 46.6386052,19.3324074 C46.3255306,19.137514 46.2268847,18.9594242 46.3029212,18.58759 C46.5262785,17.4949229 46.7003848,16.3923461 46.8979646,15.2698059 C45.8700315,14.8788701 44.8953817,14.5080412 43.9110832,14.1336218 C43.2660689,15.0792211 42.644816,15.9584676 42.0612934,16.8619861 C41.8352,17.2124208 41.617603,17.3317697 41.1844253,17.2323841 C38.332624,16.5779041 35.4766464,16.5631112 32.6432782,17.3311952 C32.2131247,17.4476717 32.0472268,17.3074978 31.8425907,16.9969896 C31.2384748,16.0802581 30.6101655,15.1794684 29.9726396,14.2449279 M60.1562558,41.3545027 C59.4651587,43.1020805 58.7897586,44.8114553 58.1120544,46.5198247 C58.0694279,46.6272531 58.0079362,46.7272131 57.93766,46.8652327 C56.8165535,46.6384555 55.71388,46.431067 54.619559,46.1864808 C54.1408746,46.0794833 53.8469532,46.1774327 53.5515916,46.6107367 C52.2729397,48.4868552 50.6911498,50.0859291 48.8428,51.4058043 C48.3953655,51.7253606 48.3052161,52.0246663 48.4292075,52.5389724 C48.6859747,53.6046387 48.8669935,54.6884013 49.0920788,55.830043 C47.2481934,56.5975525 45.4249011,57.3564448 43.5717991,58.1276885 C42.8880465,57.1074064 42.2185507,56.1470141 41.5952817,55.1576104 C41.3658761,54.7935317 41.1219256,54.6978802 40.7140934,54.7793132 C38.383459,55.2447882 36.0395758,55.210032 33.6991489,54.8758264 C33.2917487,54.81766 33.0987772,54.9269554 32.8916929,55.2501022 C32.2594954,56.2366335 31.5933119,57.2013344 30.8963105,58.24 C29.0744583,57.5229014 27.2589425,56.8082443 25.3784788,56.0680227 C25.6068764,54.8917683 25.802584,53.7429455 26.0645356,52.6094902 C26.1613093,52.1906919 26.0849848,51.9735373 25.7272676,51.731249 C23.7841602,50.4153952 22.1273418,48.7962144 20.7628608,46.8897919 C20.5047975,46.52916 20.2736637,46.4053589 19.8160046,46.5211173 C18.8652601,46.7618257 17.8921943,46.9136329 16.9309373,47.1145584 C16.5977015,47.1842145 16.3582153,47.1985766 16.1956296,46.7948585 C15.5185014,45.1126281 14.8055151,43.4446161 14.08,41.7098205 C15.0827315,41.0372443 16.0624217,40.3579179 17.0673134,39.7179437 C17.4234465,39.4910228 17.5091316,39.278464 17.4281988,38.8488942 C16.9907008,36.5259714 16.9796122,34.1921334 17.3250887,31.8509708 C17.3595067,31.6181615 17.1934649,31.2496305 16.9997734,31.1078768 C16.1502669,30.4858551 15.2435891,29.9419631 14.3899064,29.325399 C14.2242966,29.2057629 14.0700634,28.8368011 14.1351553,28.6697701 C14.8112754,26.9352617 15.5333343,25.2184187 16.2666258,23.4382388 C17.4057335,23.663149 18.5326004,23.8630692 19.6473706,24.1162726 C20.1070459,24.2208286 20.3749018,24.1412627 20.6541343,23.7303636 C21.9585638,21.8118769 23.5762118,20.1846533 25.4670441,18.8386391 C25.8394502,18.5735151 25.9344959,18.3230405 25.8339779,17.8855715 C25.5779307,16.771505 25.3737266,15.6455179 25.1387046,14.4735722 C26.8881205,13.7421115 28.6009582,13.0129487 30.3307889,12.3260104 C30.4763815,12.2682748 30.8137936,12.437891 30.9282804,12.5973101 C31.528508,13.4326086 32.1036782,14.2874396 32.6488945,15.1595051 C32.8804603,15.5301904 33.1388116,15.5955379 33.5436197,15.5168337 C35.7528548,15.0872639 37.9769229,15.0334061 40.1976787,15.3973412 C40.8293002,15.5007482 41.2081867,15.361436 41.5317739,14.7893943 C41.9783445,14.000198 42.5412739,13.2773546 43.0239905,12.5072598 C43.2385633,12.1650115 43.4308147,12.0743867 43.8334626,12.2414177 C45.3369119,12.864732 46.8530339,13.4594657 48.3775084,14.0300712 C48.7944132,14.1860434 48.8478403,14.4171292 48.7682036,14.793703 C48.555503,15.7989049 48.3394902,16.8045378 48.1786326,17.8185006 C48.1450786,18.0297668 48.2746863,18.3751748 48.4447604,18.4939492 C50.4299183,19.8804644 52.1244669,21.5514924 53.5661365,23.4920966 C53.7013605,23.6743514 54.0780869,23.8030357 54.3123888,23.7658379 C55.4689215,23.582865 56.6153735,23.33555 57.852119,23.0941234 C58.6209806,24.9283046 59.3820658,26.7438152 60.16,28.5996831 C59.1337951,29.2834617 58.1487766,29.9599157 57.1405727,30.6000336 C56.8061849,30.8123052 56.7266921,31.0079167 56.8024406,31.410773 C57.2384985,33.7336958 57.2821331,36.0709807 56.8858216,38.4046751 C56.8133853,38.8305107 56.9494734,39.0575752 57.2841492,39.2888047 C58.2294214,39.9419921 59.1516521,40.6283559 60.1562558,41.3545027" id="Fill-1" fill="#0B80E0"></path>
                            <g id="Group-5" transform="translate(37.120000, 7.040000)">
                                <mask id="mask-2" fill="white">
                                    <use xlink:href="#path-1"></use>
                                </mask>
                                <g id="Clip-4"></g>
                                <path d="M23.3573602,2.86147348 L23.3573602,10.5223326 L21.6975202,10.5223326 L21.6975202,0.0795411692 L32.0739427,0.0795411692 L32.0739427,1.62072306 L24.7530052,1.62072306 C30.9959302,7.72375743 34.8254752,14.9227784 35.9904127,23.4504985 C37.1532127,31.9640148 35.6180602,40.0174148 31.1163427,47.3181578 C24.0061627,58.8494752 13.5175927,64.6403134 0.04393275,65.2800574 L0.04393275,63.6809126 C17.1199927,62.3176366 28.5395152,53.7947946 33.6341752,37.1274476 C36.7265677,23.7576732 33.1451152,12.3873319 23.6288227,2.79533264 C23.5383352,2.81742741 23.4478477,2.83937871 23.3573602,2.86147348" id="Fill-3" fill="#0B80E0" mask="url(#mask-2)"></path>
                            </g>
                            <path d="M13.0058103,54.8184671 L14.7082702,54.8184671 L14.7082702,65.28 L4.28937023,65.28 L4.28937023,63.6189127 L11.640869,63.6189127 C4.9240937,57.0436377 1.01954367,49.265234 0.169385907,40.039141 C-0.506794726,32.7014632 0.825838649,25.7014025 4.44890883,19.2909869 C11.4588863,6.88761744 22.2401791,0.662453176 36.48,0 L36.48,0.884611222 L36.48,1.66381585 C26.3667394,1.88697913 17.7946846,5.60450035 10.9055047,13.0359526 C6.4555785,17.836261 3.52484295,23.4900181 2.32773162,29.9359043 C-0.0367562647,42.6659768 3.73498788,53.4391341 12.7870881,62.4389045 C12.8599955,62.4236823 12.9329029,62.4084601 13.0058103,62.3933815 L13.0058103,54.8184671 Z" id="Fill-6" fill="#0B80E0"></path>
                            <mask id="mask-4" fill="white">
                                <use xlink:href="#path-3"></use>
                            </mask>
                            <g id="Clip-9"></g>
                            <polygon id="Fill-8" fill="#0B80E0" mask="url(#mask-4)" points="39.04 1.92 40.96 1.92 40.96 0 39.04 0"></polygon>
                            <polygon id="Fill-10" fill="#0B80E0" mask="url(#mask-4)" points="43.52 1.92 45.44 1.92 45.44 0 43.52 0"></polygon>
                            <polygon id="Fill-11" fill="#0B80E0" mask="url(#mask-4)" points="20.48 72.32 22.4 72.32 22.4 70.4 20.48 70.4"></polygon>
                            <polygon id="Fill-12" fill="#0B80E0" mask="url(#mask-4)" points="24.32 72.32 26.24 72.32 26.24 70.4 24.32 70.4"></polygon>
                            <polygon id="Fill-13" fill="#0B80E0" mask="url(#mask-4)" points="28.8 72.32 30.72 72.32 30.72 70.4 28.8 70.4"></polygon>
                            <polygon id="Fill-14" fill="#0B80E0" mask="url(#mask-4)" points="32.64 72.32 34.56 72.32 34.56 70.4 32.64 70.4"></polygon>
                            <polygon id="Fill-15" fill="#0B80E0" mask="url(#mask-4)" points="47.36 1.92 49.28 1.92 49.28 0 47.36 0"></polygon>
                            <polygon id="Fill-16" fill="#0B80E0" mask="url(#mask-4)" points="51.2 1.92 52.48 1.92 52.48 0 51.2 0"></polygon>
                            <path d="M48.2552172,34.8589995 C48.2303696,28.5665483 43.130717,23.4457011 36.9215388,23.4779076 C30.4470799,23.5115456 25.3214307,28.5891645 25.3488636,34.9421641 C25.3761529,41.2595218 30.4677623,46.383375 36.7096877,46.3750728 C43.099837,46.3667707 48.2803521,41.1994028 48.2552172,34.8589995 M23.6801946,34.8869119 C23.7202668,27.5357944 29.5851688,21.7351735 36.9525625,21.7600799 C44.1411394,21.7842706 49.9523246,27.7344732 49.9198647,35.0376387 C49.8879793,42.233449 44.0272424,48.0329247 36.8208557,47.9998593 C29.5328883,47.9665076 23.6409842,42.0870163 23.6801946,34.8869119" id="Fill-17" fill="#0B80E0" mask="url(#mask-4)"></path>
                        </g>
                    </g>
                </g>
            </g>
        </g>
    </g>
</svg>

<svg version="1.1" viewBox="0 0 75 73" width="75px" height="73px" xmlns="http://www.w3.org/2000/svg" xmlns:xlink="http://www.w3.org/1999/xlink">
    <defs>
        <polygon id="c" points="0.043933 0.079541 36.364 0.079541 36.364 65.28 0.043933 65.28"/>
        <polygon id="b" points="0 72.32 73.6 72.32 73.6 0 0 0"/>
    </defs>
    <g transform="translate(-593 -1180)" fill="none" fill-rule="evenodd">
        <g transform="translate(-88 -410)">
            <g transform="translate(663 1587)">
                <g transform="translate(18 3)">
                    <g transform="translate(.68 .4)">
                        <path d="m29.973 14.245c-0.85008 0.35747-1.6538 0.72686-2.4818 1.0309-0.44887 0.16473-0.49611 0.40544-0.39631 0.81864 0.21284 0.88241 0.35772 1.7815 0.58179 2.6607 0.098502 0.38605 0.032402 0.60393-0.30026 0.83501-2.4201 1.6808-4.6197 3.5812-6.124 6.1737-0.086117 0.14865-0.43649 0.23841-0.64228 0.20825-0.9241-0.13515-1.8422-0.31396-2.7583-0.4975-0.3871-0.077555-0.6201-0.0076119-0.75561 0.41047-0.22091 0.68076-0.483 1.3505-0.76742 2.0078-0.15279 0.35316-0.10369 0.55596 0.23214 0.76248 0.61175 0.37629 1.1662 0.85196 1.7972 1.1882 0.7775 0.41435 1.0091 0.87365 0.78917 1.802-0.61204 2.5839-0.33583 5.1849 0.21356 7.7529 0.11377 0.53125 0.0095046 0.82697-0.45507 1.1073-0.77851 0.46964-1.5239 0.99615-2.2637 1.526-0.13681 0.097949-0.29579 0.36796-0.25086 0.48357 0.35973 0.92549 0.76613 1.833 1.156 2.7407 1.1315-0.24028 2.1666-0.44092 3.1908-0.68651 0.43649-0.1047 0.67554-0.0084737 0.92223 0.38663 1.5085 2.4156 3.4693 4.3922 5.9369 5.8352 0.44211 0.25852 0.52318 0.53542 0.43231 0.9838-0.20795 1.0263-0.38839 2.0581-0.58827 3.1321 1.0219 0.39266 1.9955 0.76665 2.9918 1.1494 0.64732-0.94862 1.247-1.8708 1.9011-2.7528 0.14386-0.19389 0.51224-0.38778 0.72379-0.3411 2.8661 0.63322 5.7194 0.53513 8.5596-0.11231 0.47436-0.10815 0.68764 0.020825 0.92425 0.38605 0.58395 0.90108 1.2035 1.7793 1.8347 2.7048 0.911-0.38505 1.7962-0.73936 2.6578-1.1438 0.13738-0.064486 0.2631-0.3714 0.23301-0.537-0.1754-0.96326-0.4231-1.9137-0.5877-2.8784-0.036434-0.21328 0.094038-0.58195 0.26483-0.68421 2.2939-1.3716 4.0919-3.2569 5.5139-5.4705 0.59044-0.91903 1.1629-1.1905 2.1869-0.87968 0.74726 0.22678 1.7248 0.58569 2.2837 0.29054 0.54392-0.28724 0.68634-1.3315 1.0039-2.0437 0.029234-0.065491 0.040322-0.14046 0.076901-0.20064 0.20521-0.33607 0.10628-0.54533-0.22293-0.75372-0.76886-0.48659-1.5009-1.0316-2.2714-1.5156-0.39041-0.24502-0.5324-0.47424-0.41849-0.97102 0.64703-2.8197 0.65394-5.6431-0.11535-8.4466-0.10585-0.38562-0.015121-0.59976 0.321-0.82209 0.79896-0.52824 1.5734-1.095 2.3374-1.673 0.15855-0.12007 0.3642-0.40774 0.31739-0.53168-0.35095-0.93066-0.75979-1.8398-1.147-2.7472-1.167 0.24301-2.2428 0.48443-3.3272 0.67703-0.19816 0.035187-0.5445-0.062332-0.63263-0.21069-1.5308-2.5767-3.6957-4.5015-6.2114-6.0668-0.31307-0.19489-0.41172-0.37298-0.33568-0.74482 0.22336-1.0927 0.39746-2.1952 0.59504-3.3178-1.0279-0.39094-2.0026-0.76176-2.9869-1.1362-0.64501 0.9456-1.2663 1.8248-1.8498 2.7284-0.22609 0.35043-0.44369 0.46978-0.87687 0.3704-2.8518-0.65448-5.7078-0.66927-8.5411 0.098811-0.43015 0.11648-0.59605-0.023697-0.80069-0.33421-0.60412-0.91673-1.2324-1.8175-1.87-2.7521m30.184 27.11c-0.6911 1.7476-1.3665 3.457-2.0442 5.1653-0.042626 0.10743-0.10412 0.20739-0.17439 0.34541-1.1211-0.22678-2.2238-0.43417-3.3181-0.67875-0.47868-0.107-0.77261-0.0090481-1.068 0.42426-1.2787 1.8761-2.8604 3.4752-4.7088 4.7951-0.44743 0.31956-0.53758 0.61886-0.41359 1.1332 0.25677 1.0657 0.43779 2.1494 0.66287 3.2911-1.8439 0.76751-3.6672 1.5264-5.5203 2.2976-0.68375-1.0203-1.3532-1.9807-1.9765-2.9701-0.22941-0.36408-0.47336-0.45973-0.88119-0.3783-2.3306 0.46548-4.6745 0.43072-7.0149 0.096513-0.4074-0.058166-0.60037 0.051129-0.80746 0.37428-0.6322 0.98653-1.2984 1.9512-1.9954 2.9899-1.8219-0.7171-3.6374-1.4318-5.5178-2.172 0.2284-1.1763 0.42411-2.3251 0.68606-3.4585 0.096774-0.4188 0.020449-0.63595-0.33727-0.87824-1.9431-1.3159-3.5999-2.935-4.9644-4.8415-0.25806-0.36063-0.4892-0.48443-0.94686-0.36867-0.95074 0.24071-1.9238 0.39252-2.8851 0.59344-0.33324 0.069656-0.57272 0.084018-0.73531-0.3197-0.67713-1.6822-1.3901-3.3502-2.1156-5.085 1.0027-0.67258 1.9824-1.3519 2.9873-1.9919 0.35613-0.22692 0.44182-0.43948 0.36089-0.86905-0.4375-2.3229-0.44859-4.6568-0.10311-6.9979 0.034418-0.23281-0.13162-0.60134-0.32532-0.74309-0.84951-0.62202-1.7562-1.1659-2.6099-1.7825-0.16561-0.11964-0.31984-0.4886-0.25475-0.65563 0.67612-1.7345 1.3982-3.4514 2.1315-5.2315 1.1391 0.22491 2.266 0.42483 3.3807 0.67803 0.45968 0.10456 0.72753 0.02499 1.0068-0.38591 1.3044-1.9185 2.9221-3.5457 4.8129-4.8917 0.37241-0.26512 0.46745-0.5156 0.36693-0.95307-0.25605-1.1141-0.46025-2.2401-0.69527-3.412 1.7494-0.73146 3.4623-1.4606 5.1921-2.1476 0.14559-0.057736 0.483 0.11188 0.59749 0.2713 0.60023 0.8353 1.1754 1.6901 1.7206 2.5622 0.23157 0.37069 0.48992 0.43603 0.89473 0.35733 2.2092-0.42957 4.4333-0.48343 6.6541-0.11949 0.63162 0.10341 1.0105-0.035905 1.3341-0.60795 0.44657-0.7892 1.0095-1.512 1.4922-2.2821 0.21457-0.34225 0.40682-0.43287 0.80947-0.26584 1.5034 0.62331 3.0196 1.218 4.544 1.7887 0.4169 0.15597 0.47033 0.38706 0.3907 0.76363-0.2127 1.0052-0.42871 2.0108-0.58957 3.0248-0.033554 0.21127 0.096054 0.55667 0.26613 0.67545 1.9852 1.3865 3.6797 3.0575 5.1214 4.9981 0.13522 0.18225 0.51195 0.31094 0.74625 0.27374 1.1565-0.18297 2.303-0.43029 3.5397-0.67171 0.76886 1.8342 1.5299 3.6497 2.3079 5.5056-1.0262 0.68378-2.0112 1.3602-3.0194 2.0004-0.33439 0.21227-0.41388 0.40788-0.33813 0.81074 0.43606 2.3229 0.47969 4.6602 0.083381 6.9939-0.072436 0.42584 0.063652 0.6529 0.39833 0.88413 0.94527 0.65319 1.8675 1.3396 2.8721 2.0657" fill="#0B80E0"/>
                        <g transform="translate(37.12 7.04)">
                            <mask id="d" fill="white">
                                <use xlink:href="#c"/>
                            </mask>
                            <path d="m23.357 2.8615v7.6609h-1.6598v-10.443h10.376v1.5412h-7.3209c6.2429 6.103 10.072 13.302 11.237 21.83 1.1628 8.5135-0.37235 16.567-4.8741 23.868-7.1102 11.531-17.599 17.322-31.072 17.962v-1.5991c17.076-1.3633 28.496-9.8861 33.59-26.553 3.0924-13.37-0.48906-24.74-10.005-34.332-0.090488 0.022095-0.18098 0.044046-0.27146 0.066141" fill="#0B80E0" mask="url(#d)"/>
                        </g>
                        <path d="m13.006 54.818h1.7025v10.462h-10.419v-1.6611h7.3515c-6.7168-6.5753-10.621-14.354-11.471-23.58-0.67618-7.3377 0.65645-14.338 4.2795-20.748 7.01-12.403 17.791-18.629 32.031-19.291v0.88461 0.7792c-10.113 0.22316-18.685 3.9407-25.574 11.372-4.4499 4.8003-7.3807 10.454-8.5778 16.9-2.3645 12.73 1.4073 23.503 10.459 32.503 0.072907-0.015222 0.14581-0.030444 0.21872-0.045523v-7.5749z" fill="#0B80E0"/>
                        <mask id="a" fill="white">
                            <use xlink:href="#b"/>
                        </mask>
                        <polygon points="39.04 1.92 40.96 1.92 40.96 0 39.04 0" fill="#0B80E0" mask="url(#a)"/>
                        <polygon points="43.52 1.92 45.44 1.92 45.44 0 43.52 0" fill="#0B80E0" mask="url(#a)"/>
                        <polygon points="20.48 72.32 22.4 72.32 22.4 70.4 20.48 70.4" fill="#0B80E0" mask="url(#a)"/>
                        <polygon points="24.32 72.32 26.24 72.32 26.24 70.4 24.32 70.4" fill="#0B80E0" mask="url(#a)"/>
                        <polygon points="28.8 72.32 30.72 72.32 30.72 70.4 28.8 70.4" fill="#0B80E0" mask="url(#a)"/>
                        <polygon points="32.64 72.32 34.56 72.32 34.56 70.4 32.64 70.4" fill="#0B80E0" mask="url(#a)"/>
                        <polygon points="47.36 1.92 49.28 1.92 49.28 0 47.36 0" fill="#0B80E0" mask="url(#a)"/>
                        <polygon points="51.2 1.92 52.48 1.92 52.48 0 51.2 0" fill="#0B80E0" mask="url(#a)"/>
                        <path d="m48.255 34.859c-0.024848-6.2925-5.1245-11.413-11.334-11.381-6.4745 0.033638-11.6 5.1113-11.573 11.464 0.027289 6.3174 5.1189 11.441 11.361 11.433 6.3901-0.0083021 11.571-5.1757 11.546-11.516m-24.575 0.027912c0.040072-7.3511 5.905-13.152 13.272-13.127 7.1886 0.024191 13 5.9744 12.967 13.278-0.031885 7.1958-5.8926 12.995-13.099 12.962-7.288-0.033352-13.18-5.9128-13.141-13.113" fill="#0B80E0" mask="url(#a)"/>
                    </g>
                </g>
            </g>
        </g>
    </g>
</svg>
